X:1
T:Title
%%score { ( 1 4 ) | ( 2 3 ) }
L:1/8
Q:1/4=100
M:4/4
K:G
V:1 treble nm="Grand Piano"
V:4 treble 
V:2 treble 
V:3 treble 
V:1
 B2 d2 B2 [DG]2 | [CEG]2 [G,CE]2 [FA][EG][DF]E | D2 G2 G2 B2 | B2 [DGd]2 [DFA]4 | %4
w: Will~H.~Ruebush * * *||||
 [DGB]2 [Gd]2 [DGB]2 [D=FG]2 | [CEG]2 [G,CE]2 [FA][EG][DF]E | D2 G2 B2 [Gd]2 | [FB]2 [DA]2 [DG]4 | %8
w: ||||
 z4 [Fd]4 | z4 d4 | z4 z2 [Fd]2 | ^c2 c2 [Fd]4 | B2 d2 B2 [D=FG]2 | [CEG]2 [G,CE]2 [FA][EG][DF]E | %14
w: ||||||
 [G,B,D]2 [B,DG]2 [CFA]2 [DFB]2 | [B,G]6 z2 |] %16
w: ||
V:2
 [G,DG]2 [G,B,G]2 [G,DG]2[K:bass] B,,2 | C,2 C,2 [C,G,]2 z[K:treble] C | %2
 [G,B,]2 [G,B,D]2 [G,B,D]2 [G,DG]2 | [G,DG]2[K:bass] B,,2 D,4 | G,2 [G,B,]2 G,2 B,,2 | %5
 C,2 C,2 [C,G,]2 z C | [D,G,B,]2 [D,B,D]2 [D,G,D]2 [D,B,]2 | [D,D]2 [D,C]2 [G,B,]4 | %8
 [D,D]2 [D,A,]2 A,2 z2 | [G,DG]2 [G,B,G]2 [G,G]4 | [D,D]2 [D,A,]2 [D,A,]2 .[D,A,]2 | %11
 [A,EG]2 [A,EG]2 [D,D]4 | [G,DG]2 [G,B,G]2 [G,DG]2[K:bass] B,,2 | C,2 C,2 [C,G,]2 z C | %14
 D,2 D,2 D,2 D,2 | G,6 z2 |] %16
V:3
 x6[K:bass] x2 | z4 z2 [C,G,]2[K:treble] | x8 | x2[K:bass] x6 | x8 | z4 z2 [C,G,]2 | x8 | x8 | %8
 z4 D,4 | z4 B,2 z2 | x8 | x8 | x6[K:bass] x2 | z4 z2 [C,G,]2 | x8 | x8 |] %16
V:4
 x8 | x8 | x8 | x8 | x8 | x8 | x8 | x8 | [FA]2 [Fd]2 z2 D2 | B2 d2 z2 D2 | [FA]2 [Fd]2 [Fd]2 z D | %11
 x8 | x8 | x8 | x8 | x8 |] %16

